X:025
T:Bodmin Riding
M:C | 
L:1/8
K:G
D2 | G2 G2 G2 G2 | GFGA GAGA | B2 B2 B2 B2 | BABc BcBc | 
d2 d2 d2 ed | c2 c2 c2 dc | B2 AG c2 B2 | A6 :|| 
FG | A2 A2 A2 B2 | AGFE D2 Bc | d2 d2 d2 e2 | dcBA G2 dc | 
B2 A2 G2 dc | B2 A2 G2 B2 | cBAG F2 A2 | G4 G2 :|| 

